flaticon/sport/soccer.svg

<svg xmlns="http://www.w3.org/2000/svg" width="32" height="32" viewBox="0 0 24 24">
    <path d="M 22.398438 4.285156 L 1.449219 4.285156 C 0.648438 4.285156 0 4.933594 0 5.734375 L 0 18.597656 C 0 19.214844 0.5 19.714844 1.117188 19.714844 L 1.882812 19.714844 C 2.5 19.714844 3 19.214844 3 18.597656 L 3 7.851562 C 3.054688 7.875 3.117188 7.890625 3.175781 7.890625 C 3.289062 7.890625 3.398438 7.851562 3.480469 7.765625 C 3.609375 7.636719 3.636719 7.445312 3.5625 7.285156 L 20.4375 7.285156 C 20.363281 7.445312 20.390625 7.636719 20.519531 7.765625 C 20.605469 7.851562 20.714844 7.890625 20.824219 7.890625 C 20.882812 7.890625 20.945312 7.875 21 7.851562 L 21 18.597656 C 21 19.214844 21.5 19.714844 22.117188 19.714844 L 22.882812 19.714844 C 23.5 19.714844 24 19.214844 24 18.597656 L 24 5.886719 C 24 5.003906 23.28125 4.285156 22.398438 4.285156 Z M 23.144531 18.597656 C 23.144531 18.742188 23.027344 18.855469 22.882812 18.855469 L 22.117188 18.855469 C 21.972656 18.855469 21.855469 18.742188 21.855469 18.597656 L 21.855469 6.429688 L 2.144531 6.429688 L 2.144531 18.597656 C 2.144531 18.742188 2.027344 18.855469 1.882812 18.855469 L 1.117188 18.855469 C 0.972656 18.855469 0.855469 18.742188 0.855469 18.597656 L 0.855469 5.734375 C 0.855469 5.40625 1.121094 5.144531 1.449219 5.144531 L 22.398438 5.144531 C 22.808594 5.144531 23.144531 5.476562 23.144531 5.886719 Z M 23.144531 18.597656"/>
    <path d="M4.136719 17.148438L3.449219 17.664062C3.261719 17.804688 3.222656 18.074219 3.363281 18.261719 3.449219 18.375 3.578125 18.433594 3.707031 18.433594 3.796875 18.433594 3.886719 18.40625 3.964844 18.347656L4.652344 17.832031C4.839844 17.691406 4.878906 17.421875 4.734375 17.234375 4.59375 17.042969 4.324219 17.003906 4.136719 17.148438zM5.300781 8.976562L4.691406 8.371094C4.523438 8.203125 4.253906 8.203125 4.085938 8.371094 3.917969 8.539062 3.917969 8.8125 4.085938 8.980469L4.691406 9.585938C4.777344 9.667969 4.886719 9.710938 4.996094 9.710938 5.105469 9.710938 5.214844 9.667969 5.300781 9.585938 5.464844 9.417969 5.464844 9.144531 5.300781 8.976562zM5.570312 14.007812C5.570312 14.246094 5.761719 14.4375 6 14.4375 6.238281 14.4375 6.429688 14.246094 6.429688 14.007812L6.429688 13.152344C6.429688 12.914062 6.238281 12.722656 6 12.722656 5.761719 12.722656 5.570312 12.914062 5.570312 13.152344zM6 11.867188C6.238281 11.867188 6.429688 11.675781 6.429688 11.4375L6.429688 10.582031C6.429688 10.34375 6.238281 10.152344 6 10.152344 5.761719 10.152344 5.570312 10.34375 5.570312 10.582031L5.570312 11.4375C5.570312 11.675781 5.761719 11.867188 6 11.867188zM17.570312 14.007812C17.570312 14.246094 17.761719 14.4375 18 14.4375 18.238281 14.4375 18.429688 14.246094 18.429688 14.007812L18.429688 13.152344C18.429688 12.914062 18.238281 12.722656 18 12.722656 17.761719 12.722656 17.570312 12.914062 17.570312 13.152344zM18 11.867188C18.238281 11.867188 18.429688 11.675781 18.429688 11.4375L18.429688 10.582031C18.429688 10.34375 18.238281 10.152344 18 10.152344 17.761719 10.152344 17.570312 10.34375 17.570312 10.582031L17.570312 11.4375C17.570312 11.675781 17.761719 11.867188 18 11.867188zM20.65625 17.441406L19.929688 16.988281C19.730469 16.859375 19.464844 16.921875 19.339844 17.125 19.214844 17.324219 19.277344 17.589844 19.476562 17.714844L20.203125 18.167969C20.273438 18.210938 20.351562 18.234375 20.429688 18.234375 20.570312 18.234375 20.710938 18.160156 20.792969 18.03125 20.917969 17.832031 20.859375 17.566406 20.65625 17.441406zM19.914062 8.980469C20.082031 8.8125 20.082031 8.539062 19.914062 8.371094 19.746094 8.203125 19.476562 8.203125 19.308594 8.371094L18.699219 8.976562C18.535156 9.144531 18.535156 9.417969 18.699219 9.585938 18.785156 9.667969 18.894531 9.710938 19.003906 9.710938 19.113281 9.710938 19.222656 9.667969 19.308594 9.585938zM18.476562 16.078125L18.429688 16.046875 18.429688 15.722656C18.429688 15.488281 18.238281 15.292969 18 15.292969 17.761719 15.292969 17.570312 15.488281 17.570312 15.722656L17.570312 16.285156C17.570312 16.433594 17.648438 16.570312 17.773438 16.648438L18.023438 16.804688C18.09375 16.847656 18.171875 16.871094 18.25 16.871094 18.390625 16.871094 18.53125 16.796875 18.613281 16.667969 18.738281 16.46875 18.675781 16.203125 18.476562 16.078125zM9.429688 15.855469L8.570312 15.855469C8.335938 15.855469 8.144531 16.050781 8.144531 16.285156 8.144531 16.523438 8.335938 16.714844 8.570312 16.714844L9.429688 16.714844C9.664062 16.714844 9.855469 16.523438 9.855469 16.285156 9.855469 16.050781 9.664062 15.855469 9.429688 15.855469zM6.855469 15.855469L6.429688 15.855469 6.429688 15.722656C6.429688 15.488281 6.238281 15.292969 6 15.292969 5.761719 15.292969 5.570312 15.488281 5.570312 15.722656L5.570312 16.070312 5.507812 16.121094C5.320312 16.261719 5.28125 16.53125 5.421875 16.71875 5.507812 16.832031 5.636719 16.890625 5.765625 16.890625 5.855469 16.890625 5.945312 16.863281 6.023438 16.804688L6.144531 16.714844 6.855469 16.714844C7.09375 16.714844 7.285156 16.523438 7.285156 16.285156 7.285156 16.050781 7.09375 15.855469 6.855469 15.855469zM16.285156 15.855469L15.847656 15.855469C15.738281 14.65625 14.726562 13.714844 13.5 13.714844 12.273438 13.714844 11.261719 14.65625 11.152344 15.855469L11.144531 15.855469C10.90625 15.855469 10.714844 16.050781 10.714844 16.285156 10.714844 16.523438 10.90625 16.714844 11.144531 16.714844L11.234375 16.714844C11.515625 17.703125 12.421875 18.429688 13.5 18.429688 14.578125 18.429688 15.484375 17.703125 15.765625 16.714844L16.285156 16.714844C16.523438 16.714844 16.714844 16.523438 16.714844 16.285156 16.714844 16.050781 16.523438 15.855469 16.285156 15.855469zM13.5 17.570312C12.671875 17.570312 12 16.898438 12 16.070312 12 15.246094 12.671875 14.570312 13.5 14.570312 14.328125 14.570312 15 15.246094 15 16.070312 15 16.898438 14.328125 17.570312 13.5 17.570312zM13.5 17.570312"/>
</svg>

<svg xmlns="http://www.w3.org/2000/svg" width="32" height="32" viewBox="0 0 24 24">
    <path d="M22.398 4.285H1.45C.65 4.285 0 4.934 0 5.735v12.863c0 .617.5 1.117 1.117 1.117h.766c.617 0 1.117-.5 1.117-1.117V7.852a.46.46 0 0 0 .176.039.424.424 0 0 0 .387-.605h16.875a.424.424 0 0 0 .562.566v10.746c0 .617.5 1.117 1.117 1.117h.766c.617 0 1.117-.5 1.117-1.117V5.887c0-.883-.719-1.602-1.602-1.602zm.747 14.313a.258.258 0 0 1-.262.257h-.766a.258.258 0 0 1-.262-.257V6.43H2.145v12.168a.258.258 0 0 1-.262.257h-.766a.258.258 0 0 1-.262-.257V5.734a.59.59 0 0 1 .594-.59H22.4c.41 0 .746.333.746.743zm0 0"/>
    <path d="M4.137 17.148l-.688.516a.429.429 0 0 0 .516.684l.687-.516a.425.425 0 0 0 .082-.598.422.422 0 0 0-.597-.086zm0 0M5.3 8.977l-.609-.606a.427.427 0 0 0-.605 0 .431.431 0 0 0 0 .61l.605.605a.442.442 0 0 0 .305.125c.11 0 .219-.043.305-.125a.439.439 0 0 0 0-.61zm0 0M5.57 14.008c0 .238.192.43.43.43s.43-.192.43-.43v-.856a.428.428 0 0 0-.43-.43.428.428 0 0 0-.43.43zm0 0M6 11.867c.238 0 .43-.191.43-.43v-.855a.428.428 0 0 0-.43-.43.428.428 0 0 0-.43.43v.855c0 .239.192.43.43.43zm0 0M17.57 14.008c0 .238.192.43.43.43s.43-.192.43-.43v-.856a.428.428 0 0 0-.43-.43.428.428 0 0 0-.43.43zm0 0M18 11.867c.238 0 .43-.191.43-.43v-.855a.428.428 0 0 0-.43-.43.428.428 0 0 0-.43.43v.855c0 .239.192.43.43.43zm0 0M20.656 17.441l-.726-.453a.423.423 0 0 0-.59.137.43.43 0 0 0 .137.59l.726.453c.07.043.149.066.227.066.14 0 .28-.074.363-.203a.426.426 0 0 0-.137-.59zm0 0M19.914 8.98a.431.431 0 0 0 0-.609.427.427 0 0 0-.605 0l-.61.606a.439.439 0 0 0 0 .609.442.442 0 0 0 .305.125c.11 0 .219-.043.305-.125zm0 0M18.477 16.078l-.047-.031v-.324a.43.43 0 0 0-.43-.43.43.43 0 0 0-.43.43v.562a.43.43 0 0 0 .203.363l.25.157c.07.043.149.066.227.066a.43.43 0 0 0 .227-.793zm0 0M9.43 15.855h-.86a.43.43 0 0 0 0 .86h.86a.43.43 0 0 0 0-.86zm0 0M6.855 15.855H6.43v-.132a.43.43 0 0 0-.43-.43.43.43 0 0 0-.43.43v.347l-.062.051a.429.429 0 0 0 .515.684l.122-.09h.71c.239 0 .43-.192.43-.43a.43.43 0 0 0-.43-.43zm0 0M16.285 15.855h-.437a2.36 2.36 0 0 0-2.348-2.14 2.36 2.36 0 0 0-2.348 2.14h-.007a.43.43 0 0 0-.43.43c0 .238.191.43.43.43h.09A2.359 2.359 0 0 0 13.5 18.43a2.359 2.359 0 0 0 2.266-1.715h.52c.237 0 .429-.192.429-.43a.43.43 0 0 0-.43-.43zM13.5 17.57a1.5 1.5 0 1 1 0-3 1.5 1.5 0 0 1 0 3zm0 0"/>
</svg>
